assets/svg/networks/wallet_berachain.svg

<svg width="36" height="36" viewBox="0 0 36 36" fill="none" xmlns="http://www.w3.org/2000/svg">
<g clip-path="url(#clip0_52554_271313)">
<rect width="36" height="36" rx="10" fill="#674A38"/>
<path d="M27.4628 16.0206C27.4432 15.9173 27.4186 15.8184 27.3792 15.724C27.394 15.7016 30.6588 11.5446 27.635 8.97399C24.6159 6.4034 21.0903 9.75595 21.0707 9.77393C20.5101 9.61214 19.9447 9.51327 19.3841 9.46833C19.3841 9.46833 19.3841 9.46833 19.3792 9.46833C18.2286 9.29306 16.6158 9.46833 16.6158 9.46833C16.0602 9.51327 15.4997 9.61214 14.9441 9.76942C14.9244 9.75145 11.3989 6.39891 8.37985 8.96949C5.36079 11.5401 8.62077 15.7016 8.63552 15.7195C8.60111 15.8184 8.5716 15.9173 8.55193 16.0161C8.22742 17.7958 6 18.344 6 21.4449C6 24.6042 8.32575 27.0938 13.0756 27.0938H15.0227C15.0326 27.1028 15.7849 28.0826 17.3387 28.141C17.3387 28.141 17.6976 28.1769 18.5236 28.15C20.1709 28.15 20.9723 27.1118 20.9772 27.0983H22.9244C27.6741 27.0983 29.9999 24.6087 29.9999 21.4494C30.0147 18.353 27.7873 17.8002 27.4628 16.0206Z" fill="#EDE2D4"/>
</g>
<defs>
<clipPath id="clip0_52554_271313">
<rect width="36" height="36" fill="white"/>
</clipPath>
</defs>
</svg>

<svg xmlns="http://www.w3.org/2000/svg" width="36" height="36" fill="none"><g clip-path="url(#a)"><rect width="36" height="36" fill="#674A38" rx="10"/><path fill="#EDE2D4" d="M27.463 16.02a1.5 1.5 0 0 0-.084-.296c.015-.022 3.28-4.18.256-6.75-3.02-2.57-6.545.782-6.564.8a8.5 8.5 0 0 0-1.687-.306h-.005c-1.15-.175-2.763 0-2.763 0a8.7 8.7 0 0 0-1.672.301c-.02-.018-3.545-3.37-6.564-.8s.24 6.733.256 6.75a2 2 0 0 0-.084.297C8.227 17.796 6 18.344 6 21.445c0 3.16 2.326 5.649 7.076 5.649h1.947c.01.009.762.989 2.316 1.047 0 0 .359.036 1.185.009 1.647 0 2.448-1.038 2.453-1.052h1.947c4.75 0 7.076-2.49 7.076-5.649.015-3.096-2.213-3.649-2.537-5.428"/></g><defs><clipPath id="a"><path fill="#fff" d="M0 0h36v36H0z"/></clipPath></defs></svg>
